X: 29
T:Y Coroni
T:The Coronation
M:2/4
L:1/8
Q:220
S:Cadw Twmpath Collection
R:Polka
A:Wales
Z:brian_martin12345@yahoo.com
K:D
D/E/|F/G/A/B/ Ad/c/|Be/f/ ed|d/c/B/A/ Bc|df a D/E/|
F/G/A/B/ Ad/c/|Be/f/ ed|d/c/B/A/ Bc|d3:||
c/d/|ee/c/ AA|ff/d/ AA|gg/e/ ff/d/|e/f/e/d/ c/B/A/G/|
F/G/A/B/ Ad/c/|Be/f/ ed|d/c/B/A/ Bc|d2d:||
